X:91
T:Dusty Windowsill, The
T:Austin Barratts
R:jig
C:Sean Harling
Z:id:hn-jig-91
M:6/8
K:Ador
A2B cBA|eAB cBA|~G3 EGG|DGG EGG|A2B cBA|e2d efg|age dBe|1 ABA A2G:|2 ABA A2g||
|:aga bge|def g2f|~g3 gfe|dBA ~G3|EGG DGG|EGG ABc|Bed BAG|1 BAG A2g:|2 BAG A2G||
|:~A3 gAf|~A3 edB|~G3 eGd|~G3 edB|~A3 gAf|ABA efg|age dBe|ABA A2G:|
<end>
<start>
